icons/time-reverse-17.svg

<svg width="16" height="17" viewBox="0 0 16 17" fill="none" xmlns="http://www.w3.org/2000/svg">
<path fill-rule="evenodd" clip-rule="evenodd" d="M13.9225 8.15506C13.9286 11.4609 11.2326 14.1641 7.92681 14.1664C6.65609 14.1673 5.47747 13.7731 4.50699 13.1L4.39904 13.0144C4.13161 12.8022 4.10394 12.4063 4.33926 12.159C4.54482 11.943 4.88058 11.9177 5.11614 12.1006L5.22589 12.1857C5.99624 12.7033 6.92383 13.0051 7.92251 13.0051C10.5971 13.0051 12.7612 10.8405 12.7612 8.16638C12.7612 5.49181 10.5967 3.32767 7.92251 3.32767C6.57928 3.32767 5.36506 3.87382 4.48889 4.75613L5.67657 5.92741C5.86143 6.10971 5.73234 6.42445 5.47272 6.42445H2.36796C2.20763 6.42445 2.07764 6.29445 2.07764 6.13412V3.07226C2.07764 2.81458 2.38835 2.68461 2.57181 2.86555L3.66287 3.94153C4.74991 2.84542 6.25678 2.16638 7.92251 2.16638C11.2324 2.16638 13.9164 4.84657 13.9225 8.15506ZM8.12618 6.31718C8.12618 6.18325 8.07297 6.0548 7.97827 5.9601C7.88357 5.8654 7.75512 5.81219 7.62119 5.81219C7.48727 5.81219 7.35882 5.8654 7.26412 5.9601C7.16942 6.0548 7.11621 6.18325 7.11621 6.31718V8.67377C7.11623 8.77462 7.14646 8.87315 7.20297 8.95668C7.2595 9.04019 7.33973 9.10488 7.43334 9.1424L9.11662 9.81571C9.2399 9.86075 9.37591 9.85597 9.49576 9.80246C9.61561 9.74894 9.70994 9.65085 9.75869 9.52897C9.80744 9.4071 9.80683 9.27103 9.75701 9.14959C9.70718 9.02816 9.61198 8.93091 9.49166 8.87846L8.12618 8.33173V6.31718Z" fill="#272431"/>
</svg>

<svg xmlns="http://www.w3.org/2000/svg" width="16" height="17" viewBox="0 0 16 17"><path fill-rule="evenodd" d="M13.922 8.155c.007 3.306-2.69 6.01-5.995 6.011a5.973 5.973 0 01-3.42-1.066l-.108-.086a.58.58 0 01.717-.913l.11.085c.77.517 1.698.82 2.697.82a4.836 4.836 0 004.838-4.84 4.836 4.836 0 00-4.838-4.838 4.823 4.823 0 00-3.434 1.428l1.188 1.171a.29.29 0 01-.204.497H2.368a.29.29 0 01-.29-.29V3.072a.29.29 0 01.494-.206l1.09 1.076a6 6 0 0110.26 4.214zM8.127 6.317a.505.505 0 00-1.01 0v2.357a.505.505 0 00.317.468l1.684.674a.505.505 0 00.375-.938l-1.366-.546V6.317z"/></svg>
